X:138
T:Ulster Rondo,The. RHu.138
S:R.Hughes MS,1823,Whitchurch,Shrops.
N:First part similar to “The Novelty” (J.Clare MS).NeilB
A:Whitchurch, Shropshire
Z:Tony Weatherall 2006
M:2/4
L:1/8
Q:1/4=100
R:Country Dance
K:D
A/G/|:FDDD|DF Ad|cAAA|Aceg|!
fd d/e/d/c/|dggf|e/f/g/f/ ed|c/d/e/d/ c/B/A/G/|!
FDDD|DF Ad|cAAA|A/B/c/d/ e/f/g/a/|!
fd f/e/d/c/|dggf|e/f/g/f/ ed|d2d2:|!
|:f>gff|ff a/f/e/d/|e>fee|ee a/e/d/c/|
f2fe|!
dcBA|^G/A/B/c/ Be/c/|d/e/c/e/ B/e/A/e/|\
A/e/A/e/ B/e/c/e/|!
d/e/c/e/ B/e/A/e/|A/e/A/e/ B/e/c/e/|d/c/d/e/ f/e/f/g/|\
b/a/g/f/ f/e/d/c/|!
d/c/d/e/ f/e/f/g/|a/^g/a/b/ /a/f/e/d/|c/d/e/f/ e/d/c/B/|\
A/d/c/B/ A/G/F/E/:|

